svg/user/user_hide_line.svg

<?xml version="1.0" encoding="UTF-8"?>
<svg width="24px" height="24px" viewBox="0 0 24 24" version="1.1" xmlns="http://www.w3.org/2000/svg" xmlns:xlink="http://www.w3.org/1999/xlink">
    <title>user_hide_line</title>
    <g id="Icon" stroke="none" stroke-width="1" fill="none" fill-rule="evenodd">
        <g id="User" transform="translate(-912.000000, 0.000000)">
            <g id="user_hide_line" transform="translate(912.000000, 0.000000)">
                <path d="M24,0 L24,24 L0,24 L0,0 L24,0 Z M12.5935,23.2578 L12.5819,23.2595 L12.5109,23.295 L12.4919,23.2987 L12.4767,23.295 L12.4057,23.2595 C12.3958,23.2564 12.387,23.259 12.3821,23.2649 L12.378,23.2758 L12.3609,23.7031 L12.3659,23.7235 L12.3769,23.7357 L12.4805,23.8097 L12.4953,23.8136 L12.5071,23.8097 L12.6107,23.7357 L12.6233,23.7197 L12.6267,23.7031 L12.6096,23.2758 C12.6076,23.2657 12.601,23.2593 12.5935,23.2578 Z M12.8584,23.1453 L12.8445,23.1473 L12.6598,23.2397 L12.6499,23.2499 L12.6472,23.2611 L12.6651,23.6906 L12.6699,23.7034 L12.6784,23.7105 L12.8793,23.8032 C12.8914,23.8069 12.9022,23.803 12.9078,23.7952 L12.9118,23.7812 L12.8777,23.1665 C12.8753,23.1546 12.8674,23.147 12.8584,23.1453 Z M12.143,23.1473 C12.1332,23.1424 12.1222,23.1453 12.1156,23.1526 L12.1099,23.1665 L12.0758,23.7812 C12.0751,23.7927 12.0828,23.8019 12.0926,23.8046 L12.1083,23.8032 L12.3092,23.7105 L12.3186,23.7024 L12.3225,23.6906 L12.3404,23.2611 L12.3372,23.2485 L12.3278,23.2397 L12.143,23.1473 Z" id="MingCute" fill-rule="nonzero"></path>
                <path d="M6,7 C6,4.23858 8.23858,2 11,2 C13.7614,2 16,4.23858 16,7 C16,9.76142 13.7614,12 11,12 C8.23858,12 6,9.76142 6,7 Z M11,4 C9.34315,4 8,5.34315 8,7 C8,8.65685 9.34315,10 11,10 C12.6569,10 14,8.65685 14,7 C14,5.34315 12.6569,4 11,4 Z M11.2711,13.9597 C11.3062,14.5108 10.8878,14.9861 10.3367,15.0212 C8.46781,15.1402 6.81717,15.7486 5.65601,16.5104 C5.07517,16.8915 4.64199,17.2943 4.36338,17.6663 C4.07876,18.0463 4,18.3316 4,18.5001 L4.00506504,18.5622909 C4.0339791,18.7371827 4.21169588,19.0517 5.14384,19.3712 C6.13861,19.7121 7.61083,19.9043 9.40237,19.9718 C9.95426,19.9925 10.3848,20.4568 10.364,21.0087 C10.3433,21.5606 9.87902,21.9911 9.32712,21.9704 C7.48466,21.901 5.7745,21.7016 4.4954,21.2632 C3.27796,20.8459 2,20.0345 2,18.5001 C2,17.7557 2.32067,17.0573 2.76264,16.4673 C3.21061,15.8692 3.83115,15.3157 4.55889,14.8382 C6.01489,13.8829 8.00082,13.1658 10.2096,13.0252 C10.7608,12.9901 11.236,13.4085 11.2711,13.9597 Z M17.4111,20.782 C17.1376,20.8031 16.8624,20.8031 16.5889,20.782 L16.5019,21.1067 C16.359,21.6401 15.8106,21.9567 15.2772,21.8138 C14.7437,21.6708 14.4271,21.1225 14.5701,20.589 L14.6603,20.2521 C14.4196,20.1317 14.1875,19.9914 13.9668,19.8312 L13.7072,20.0908 C13.3167,20.4813 12.6835,20.4813 12.293,20.0908 C11.9025,19.7003 11.9025,19.0671 12.293,18.6766 L12.6236,18.346 C12.4119,17.9851 12.2367,17.5843 12.1061,17.1437 C11.9492,16.6142 12.2513,16.0577 12.7809,15.9008 C13.3104,15.7439 13.8668,16.046 14.0237,16.5755 C14.9017,19.5386 19.0983,19.5386 19.9763,16.5755 C20.1332,16.046 20.6896,15.7439 21.2191,15.9008 C21.7487,16.0577 22.0508,16.6142 21.8939,17.1437 C21.7633,17.5843 21.5881,17.9851 21.3764,18.3461 L21.707,18.6767 C22.0975,19.0672 22.0975,19.7004 21.707,20.0909 C21.3165,20.4814 20.6833,20.4814 20.2928,20.0909 L20.0331,19.8312 C19.8125,19.9914 19.5804,20.1317 19.3397,20.2521 L19.4299,20.589 C19.5729,21.1225 19.2563,21.6708 18.7228,21.8138 C18.1894,21.9567 17.641,21.6401 17.4981,21.1067 L17.4111,20.782 Z" id="形状" fill="#09244B"></path>
            </g>
        </g>
    </g>
</svg>

<svg xmlns="http://www.w3.org/2000/svg" width="24" height="24"><g fill="none" fill-rule="evenodd"><path d="M24 0v24H0V0h24ZM12.594 23.258l-.012.002-.071.035-.02.004-.014-.004-.071-.036c-.01-.003-.019 0-.024.006l-.004.01-.017.428.005.02.01.013.104.074.015.004.012-.004.104-.074.012-.016.004-.017-.017-.427c-.002-.01-.009-.017-.016-.018Zm.264-.113-.014.002-.184.093-.01.01-.003.011.018.43.005.012.008.008.201.092c.012.004.023 0 .029-.008l.004-.014-.034-.614c-.003-.012-.01-.02-.02-.022Zm-.715.002a.023.023 0 0 0-.027.006l-.006.014-.034.614c0 .012.007.02.017.024l.015-.002.201-.093.01-.008.003-.011.018-.43-.003-.012-.01-.01-.184-.092Z"/><path fill="#09244B" d="M6 7a5 5 0 1 1 10 0A5 5 0 0 1 6 7Zm5-3a3 3 0 1 0 0 6 3 3 0 0 0 0-6Zm.271 9.96a1 1 0 0 1-.934 1.061c-1.87.12-3.52.728-4.681 1.49-.58.38-1.014.783-1.293 1.155-.284.38-.363.666-.363.834l.005.062c.029.175.207.49 1.139.81.995.34 2.467.532 4.258.6a1 1 0 1 1-.075 1.998c-1.842-.069-3.552-.268-4.832-.707C3.278 20.846 2 20.034 2 18.5c0-.744.32-1.443.763-2.033.448-.598 1.068-1.151 1.796-1.629 1.456-.955 3.442-1.672 5.65-1.813a1 1 0 0 1 1.062.935Zm6.14 6.822a5.348 5.348 0 0 1-.822 0l-.087.325a1 1 0 0 1-1.932-.518l.09-.337c-.24-.12-.473-.26-.693-.42l-.26.259a1 1 0 0 1-1.414-1.414l.33-.331a5.405 5.405 0 0 1-.517-1.202 1 1 0 0 1 1.918-.568c.878 2.963 5.074 2.963 5.952 0a1 1 0 1 1 1.918.568c-.13.44-.306.841-.518 1.202l.331.33a1 1 0 0 1-1.414 1.415l-.26-.26c-.22.16-.453.3-.693.421l.09.337a1 1 0 1 1-1.932.518l-.087-.325Z"/></g></svg>
